X: 4
T: Song for Securing Fair Weather
C: Teton Sioux band 1911-1914
N: Derived from sioux004.krn
O: South Dakota, U.S.A.
N: Teton Sioux Music by Frances Densmore, 1918
Z: transcribed to **kern format by Craig Sapp
L: 1/8
M: 2/4
Q: 1/4=58
K: Gb clef=bass
%%linebreak <none>
E< E E/ [I:setbarnb 1]| 
(E7/C/) | 
C2E2 | 
D< C B,/ B,3/ ||  
[M:3/4]B, B,-B,7/B,/ ||  
[M:2/4]B,2(3E C C ||  
[M:3/4]B,6 | 
C B, G,< G, F, F, ||  
[M:2/4]E,4- | 
E,2B,,2 | 
F,> F,F,2 | 
F,< E,E,2 ||  
[M:2/4]F, E, B,,/ B,,3/ | 
B,,4 | 
B,, B,,B,,2- | 
B,,2B,,2 |]  



